X:1
T:Si iniquitates - S Wesley
%%score [ 1 2 3 ] { ( 4 7 ) | ( 5 6 ) }
L:1/8
Q:1/4=108
M:4/4
K:G
V:1 treble-8 nm="Tenor" snm="T"
V:2 bass nm="Baritone" snm="B"
V:3 bass nm="Bass" snm="B"
V:4 treble nm="Midi_7"
V:7 treble 
V:5 bass 
V:6 bass 
V:1
"^Psalm 130:3""^Samuel Wesley\n(1766-1837)""^Si iniquitates observaveris" B4 z4 | z2 B2 B2 c2 | %2
w: Si|i- ni- qui-|
 (d3 e) A4 | z4 A4 | z2 A2 A2 B2 | c4 B4 | A4 A4 |[M:4/4][K:treble-8] B3 c d3 z | G3 G A2 A2 | %9
w: ta\- * tes,|si|i- ni- qui-|ta- tes|ob- ser-|va- ve- ris,|Do- mi- ne, quis|
 B2 G2 c4- | c2 B2 A2 (BG) | G2 F2 z4 | B4 z4 | z2 B2 B2 c2 | (d3 e) A4 | z4 A4 | z2 A2 A2 B2 | %17
w: sus- ti- ne\-|* bit, sus- ti\- *|ne- bit?|Si|i- ni- qui-|ta\- * tes,|si|i- ni- qui-|
 c4 B4 | A4 A4 | B3 c d3 z | d3 d e2 e2 | f2 d2 g4- | g2 f2 (e>f) g2- | g2 f2 (fe) (fg) | %24
w: ta- tes|ob- ser-|va- ve- ris,|Do- mi- ne, quis|sus- ti- ne\-|* bit, Do- mi- ne|* qui sus\- * ti\- *|
 g2 f2 z4 | d4 z4 | z2 d2 G2 c2 | B2 A2 z4 | z4 e2 c2 | B2 cd (e2 fg | %30
w: ne- bit?|Si|i- ni- qui-|ta- tes|ob- ser-|va- ve- ris, Do\- * *|
 a3) c[Q:1/4=72] !fermata!c4 |[Q:1/4=108] B3 B B4 |[M:4/4][K:treble-8] z2 B2 B2 c2 | (d3 e) A4 | %34
w: * mi- ne,|Do- mi- ne,|i- ni- qui-|ta- * tes,|
 z2 A2 A2 B2 |[Q:1/4=106] (c2[Q:1/4=103] e4[Q:1/4=99] d2- | %36
w: qui su- sti-|ne\- * *|
[Q:1/4=97] d2[Q:1/4=95] c[Q:1/4=94]B[Q:1/4=92] A4) |[Q:1/4=90] B8 |] %38
w: |bit?|
V:2
 G,4 z4 | z2 G,2 G,2 A,2 | G,4 F,4 | z4 F,4 | z2 F,2 F,2 G,2 | (G,2 F,2) G,4 | (G,4 F,2) F,2 | %7
w: Si|i- ni- qui-|ta- tes,|si|i- ni- qui-|ta\- * tes|ob\- * ser-|
[M:4/4] G,3 A, B,3 z | G,3 G, G,2 F,2 | F,2 E,2 (E,G,F,E, | D,2) (G,F,) E,2 E,2 | E,2 D,2 z4 | %12
w: va- ve- ris,|Do- mi- ne, quis|sus- ti- ne\- * * *|* bit, * sus- ti-|ne- bit?|
 D,4 z4 | z2 G,2 G,2 A,2 | G,4 F,4 | z4 F,4 | z2 F,2 F,2 G,2 | (G,2 F,2) G,4 | (G,4 F,E,) F,2 | %19
w: Si|i- ni- qui-|ta- tes,|si|i- ni- qui-|ta\- * tes|ob\- * * ser-|
 G,3 A, B,3 z | D3 D D2 ^C2 | ^C2 B,2 (B,DCB, | A,2 D^C B,2 ED | ^C2 D4 C2 | E2) D2 z4 | F,4 z4 | %26
w: va- ve- ris,|Do- mi- ne, quis|sus- ti- ne\- * * *|||* bit?|Si|
 z2 F,2 E,2 E,2 | G,2 F,2 B,2 G,2 | E,2 F,G, (A,4- | A,G,A,B, C4- | C3) A, !fermata!A,4 | %31
w: i- ni- qui-|ta- tes ob- ser-|va- ve- ris, Do\-||* mi- ne,|
 G,3 D, D,4 |[M:4/4] z2 G,2 G,2 A,2 | G,4 F,4 | z2 F,2 F,2 ^G,2 | (A,2 C4 B,2- | B,2 A,G, F,4) | %37
w: Do- mi- ne,|i- ni- qui-|ta- tes,|qui su- sti-|ne\- * *||
 G,8 |] %38
w: bit?|
V:3
 G,4 z4 | z2 E,2 D,2 C,2 | (B,,3 C,) D,4 | z4 D,4 | z2 D,2 C,2 B,,2 | A,,4 B,,4 | C,4 D,4 | %7
w: Si|i- ni- qui-|ta\- * tes,|si|i- ni- qui-|ta- tes|ob- ser-|
[M:4/4] G,3 G, G,3 z | E,3 B,, C,2 D,2 | G,,4 A,,4 | (B,,4 C,2 ^C,2 | D,2) D,2 z4 | G,,4 z4 | %13
w: va- ve- ris,|Do- mi- ne, quis|sus- ti-|ne\- * *|* bit?|Si|
 z2 E,2 D,2 C,2 | (B,,3 C,) D,4 | z4 D,4 | z2 D,2 C,2 B,,2 | A,,4 B,,4 | C,4 D,4 | G,3 G,, G,,3 z | %20
w: i- ni- qui-|ta\- * tes,|si|i- ni- qui-|ta- tes|ob- ser-|va- ve- ris,|
 B,3 B, G,2 A,2 | D,4 E,4 | (F,4 G,4) | A,2 B,2 G,2 A,2 | D2 D,2 z4 | B,,4 z4 | z2 B,,2 E,2 A,,2 | %27
w: Do- mi- ne, quis|su- sti-|ne\- *|bit, quis sus- ti-|ne- bit?|Si|i- ni- qui-|
 D,2 D,2 G,,2 B,,2 | C,4- C,C, A,,2 | (E,3 D, C,B,,A,,G,, | F,,3) F,, !fermata!F,,4 | %31
w: ta- tes ob- ser-|va\- * ve- ris,|Do\- * * * * *|* mi- ne,|
 G,,3 G,, G,,4 |[M:4/4] z2 E,2 D,2 C,2 | (B,,3 C,) D,4 | z2 D,2 C,2 B,,2 | (A,,4 B,,4 | C,4 D,4) | %37
w: Do- mi- ne,|i- ni- qui-|ta\- * tes,|qui su- sti-|ne\- *||
 G,,8 |] %38
w: bit?|
V:4
 B,4 z4 | z2 B,2 B,2 C2 | (D3 E) A,4 | z4 A,4 | z2 A,2 A,2 B,2 | C4 B,4 | A,4 A,4 | %7
[M:4/4] B,3 C D3 z | G,3 G, A,2 A,2 | B,2 G,2 C4- | C2 B,2 A,2 (B,G,) | G,2 F,2 z4 | B,4 z4 | %13
 z2 B,2 B,2 C2 | D3 E A,4 | z4 A,4 | z2 A,2 A,2 B,2 | C4 B,4 | A,4 A,4 | [G,B,]3 [A,C] [B,D]3 z | %20
 D3 D [DE]2 [^CE]2 | [^CF]2 [B,D]2 G4- | G2 F2 E>F G2- | G2 F2 FEFG | [EG]2 [DF]2 z4 | D4 z4 | %26
 z2 D2 G,2 C2 | B,2 A,2 B,2 G,2 | z4 E2 C2 | B,2 CD E2 FG | A3 [A,C] !fermata![A,C]4 | %31
[K:bass] [G,B,]3 [D,B,] [D,B,]4 |[M:4/4] z2 x6 | D3 E x4 | z2 x6 | x8 | x8 | x8 |] %38
V:5
 x8 | x8 | G,4 x4 | x8 | x8 | G,2 F,2 x4 | x8 |[M:4/4] x8 | x8 | F,2 E,2 E,G,F,E, | D,2 G,F, x4 | %11
 x4 z4 | x4 z4 | z2 x2 x4 | G,4 x4 | x4 x4 | z2 x2 x4 | G,2 F,2 x4 | x4 F,E, F,2 | G,3 G,, G,,3 z | %20
 B,3 B, G,2 A,2 | ^C2 B,2 B,D!courtesy!^CB, | A,2 D^C B,2 E x | ^C2 D4 C2 | x8 | x8 | x8 | x8 | %28
 E,2 F,G, A,4- | A,G,A,B,[I:staff -1] C4- | C3[I:staff +1] x x4 | G,,3 G,, G,,4 | %32
[M:4/4] z2 E,2 D,2 C,2 | B,,3 C, D,4 | z2 D,2 C,2 B,,2 | A,,4 B,,4 | C,4 D,4 | G,,8 |] %38
V:6
 G,4 z4 | z2 [E,G,]2 [D,G,]2 [C,A,]2 | B,,3 C, [D,F,]4 | z4 [D,F,]4 | z2 [D,F,]2 [C,F,]2 [B,,G,]2 | %5
 A,,4 [B,,G,]4 | [C,G,]4 [D,F,]4 |[M:4/4] G,3 [G,A,] [G,B,]3 z | [E,G,]3 [B,,G,] [C,G,]2 [D,F,]2 | %9
 G,,4 A,,4 | B,,4 [C,E,]2 [^C,E,]2 | [D,E,]2 D,2 z4 | [G,,D,]4 z4 | z2 [E,G,]2 [D,G,]2 [C,A,]2 | %14
 B,,3 C, [D,F,]4 | z4 [D,F,]4 | z2 [D,F,]2 [C,F,]2 [B,,G,]2 | A,,4 [B,,G,]4 | [C,G,]4 D,4 | x8 | %20
 x8 | D,4 E,4 | F,4 G,4 | A,2 B,2 G,2 A,2 | D2 D,2 z4 | [B,,F,]4 z4 | z2 [B,,F,]2 E,2 [A,,E,]2 | %27
 [D,G,]2 [D,F,]2 G,,2 B,,2 | C,4- C,C, A,,2 | E,3 D, C,B,,A,,G,, | F,,3 F,, !fermata!F,,4 | x8 | %32
[M:4/4] x8 | x8 | x8 | x8 | x8 | x8 |] %38
V:7
 x8 | x8 | x8 | x8 | x8 | x8 | x8 |[M:4/4] x8 | x8 | x8 | x8 | x8 | x8 | x8 | x8 | x8 | x8 | x8 | %18
 x8 | x8 | x8 | x8 | x8 | x8 | x8 | x8 | x8 | x8 | x8 | x8 | x8 |[K:bass] x8 | %32
[M:4/4] z2 [G,B,]2 [G,B,]2 [A,C]2 | G,4 [F,A,]4 | z2 [F,A,]2 [F,A,]2 [^G,B,]2 | %35
 [A,C]2 [CE]4 [B,D]2- | [B,D]2 [A,C][G,B,] [F,A,]4 | [G,B,]8 |] %38

